!!!!SEGMENT: pl-kk--kk-i-389--012_anonim--deo-gratias-2de-clasis-no-2.krn
!!!cenid: 17xx:2531
!!!COM: Anonim
!!!COM-rismID: pe30004985
!!!CDT:
!!!CNT:
!!!OTL: Deo gratias 2de Clasis No. 2
!!!PDT:
!!!AGN: Sacred
!!!YEC: Copyright 2022 Narodowy Instytut Fryderyka Chopina (https://polishscores.org)
!!!YEM: License CC-BY-4.0 (https://creativecommons.org/licenses/by/4.0)
!!!SMS-siglum: PL-Kk
!!!SMS-shelfmark: Kk.I.389
!!!SMS-variant:
!!!SMS-altvar:
!!!SMS-shelfwork: 012 W
!!!NIFC-rismSourceID: 1001146182
!!!NIFC-rismChildID: 1001147256
!!!NIFC-islandoraID: pl-kk:6976
!!!URL-pdf-islandora: https://repozytorium.nifc.pl/islandora/object/pl-kk%3A6976/datastream/PDF/view
!!!URL-scan: https://polish.musicsources.pl/pl/lokalizacje/galeria/rekopisy/5999/1 @EN{Scan on Polish Music Sources Website} @PL{Skany w portalu Dziedzictwo Muzyki Polskiej w otwartym dostępie}
!!!IIIF:
!!!ONB-nifc: UWAGA: 5 Deo Gratias w zakresie skanów: S – 18-19, A – 37-38, T – 56-57, B – 75-76. Każdy numer w osobnym pliku.
!!!AIN: 1 alto 1 bass 1 soprn 1 tenor
!!!key:
**kern	**text	**kern	**text	**kern	**text	**kern	**text
*part4	*part4	*part3	*part3	*part2	*part2	*part1	*part1
*staff4	*staff4	*staff3	*staff3	*staff2	*staff2	*staff1	*staff1
*I"Basso.	*	*I"Tenore.	*	*I"Alto	*	*I"Soprano	*
*I'B	*	*I'T	*	*I'A	*	*I'S	*
*ICvox	*	*ICvox	*	*ICvox	*	*ICvox	*
*Ibass	*	*Itenor	*	*Ialto	*	*Isoprn	*
*clefF4	*	*clefC4	*	*clefC3	*	*clefC1	*
*k[]	*	*k[]	*	*k[]	*	*k[]	*
*C:	*	*C:	*	*C:	*	*C:	*
*M2/2	*	*M2/2	*	*M2/2	*	*M2/2	*
*met(C.)	*	*met(C.)	*	*met(C.)	*	*met(C.)	*
=1	=1	=1	=1	=1	=1	=1	=1
*	*	*	*	*	*	*all\right:global	*
[y1G	De-	1G	De-	1d	De-	1b	De-
=2	=2	=2	=2	=2	=2	=2	=2
*	*	*	*	*2\right	*	*	*
!LO:N:xstem:cue	!	!	!	!	!	!	!
!LO:N:vis=4	!	!	!	!	!	!	!
2G\]	.	1A	.	2e\	.	1cc	.
*2\right	*	*	*	*	*	*	*
2F#X\	-o	.	.	2d\	.	.	.
=3	=3	=3	=3	=3	=3	=3	=3
*	*	*	*	*	*	*2\right	*
2G\	gra-	1B	.	2d\	.	2b\	.
2Fn\	.	.	.	2fn\	.	2g\	-o
=4	=4	=4	=4	=4	=4	=4	=4
2E\	.	1c	-o	2g\	.	2g\	gra-
!	!	!	!	!LO:SIC:v:s=2f#	!	!	!
2F#X\	.	.	.	2f\	.	2a\	.
=5	=5	=5	=5	=5	=5	=5	=5
2G\	.	1B	gra-	2d\	.	2b\	.
2BB/	.	.	.	2g\	-o	2dd\	.
=6	=6	=6	=6	=6	=6	=6	=6
2C/	.	1A	.	2g\	gra-	2ee\	.
2D/	-ti-	.	.	2f#X\	-ti-	2dd\	.
=7	=7	=7	=7	=7	=7	=7	=7
2GG/	-as,	1G	.	2g\	-as,	2dd\	.
2G\	De-	.	.	2g\	De-	2b\	.
=8	=8	=8	=8	=8	=8	=8	=8
2F#X\	.	1A	-ti-	2d\	.	2a\	.
2D\	-o	.	.	2f#X\	.	2dd\	.
!LO:LB:g=original	!	!	!	!	!	!	!
=9	=9	=9	=9	=9	=9	=9	=9
2G\	gra-	1B	-as,	2g\	.	2b\	.
2BB/	.	.	.	2d\	.	2dd\	-ti-
!	!	!	!	!LO:LB:g=original	!	!	!
=10	=10	=10	=10	=10	=10	=10	=10
[y1C	.	1E	De-	2e\	.	2g\	-as,
.	.	.	.	2c\	.	2a\	De-
!	!	!	!	!	!	!LO:LB:g=original	!
=11	=11	=11	=11	=11	=11	=11	=11
!LO:N:xstem:cue	!	!	!	!	!	!	!
!LO:N:vis=4	!	!	!	!	!	!	!
2C/]	.	1F	.	1d	-o	2a\	.
2BB/	-ti-	.	.	.	.	2b\	-o
!	!	!LO:LB:g=original	!	!	!	!	!
=12	=12	=12	=12	=12	=12	=12	=12
2C/	-as	1E	.	2e\	gra-	2g\	gra-
2E\	De-	.	.	2g\	.	2cc\	.
=13	=13	=13	=13	=13	=13	=13	=13
2Fn\	.	1D	.	2a\	.	2cc\	.
2G\	-o	.	.	2g\	-ti-	2b\	.
=14	=14	=14	=14	=14	=14	=14	=14
2C/	gra-	1C	-o.	1g	-as,	2cc\	.
2c\	.	.	.	.	.	2ee\	.
=15	=15	=15	=15	=15	=15	=15	=15
2B\	.	1G	gra-	2r	.	2dd\	.
2G\	.	.	.	2g\	De-	2b\	-ti-
=16	=16	=16	=16	=16	=16	=16	=16
2Fn\	.	1A	.	2c\	.	2a\	-as.
2E\	.	.	.	2e\	.	2cc\	De-
=17	=17	=17	=17	=17	=17	=17	=17
2D\	.	1B	.	2fn\	.	1dd	-o
2GG/	.	.	.	2g\	.	.	.
=18	=18	=18	=18	=18	=18	=18	=18
2C/	.	1c	.	2g\	.	2ee\	gra-
2F\	.	.	.	2a\	.	2ff\	.
!LO:LB:g=original	!	!	!	!	!	!	!
=19	=19	=19	=19	=19	=19	=19	=19
2BB/	.	1B	.	2a\	.	2ff\	.
2E\	.	.	.	2g\	.	2ee\	.
!	!	!	!	!LO:LB:g=original	!	!	!
=20	=20	=20	=20	=20	=20	=20	=20
2AA/	.	1A	-ti-	2g\	.	2ee\	.
2D\	.	.	.	2fn\	.	2dd\	.
!	!	!	!	!	!	!LO:LB:g=original	!
=21	=21	=21	=21	=21	=21	=21	=21
2GG/	.	1G	-as,	2f\	.	2dd\	.
2C/	.	.	.	2e\	-o	2cc\	-ti-
=22	=22	=22	=22	=22	=22	=22	=22
2F\	.	1A	De-	[y1f	gra-	2cc\	-as.
2AA/	.	.	.	.	.	2cc\	De-
=23	=23	=23	=23	=23	=23	=23	=23
!	!	!	!	!LO:N:xstem:cue	!	!	!
!	!	!	!	!LO:N:vis=4	!	!	!
2BB-X/	.	1G	.	2f\]	.	2dd\	.
2C/	.	.	.	2e\	-ti-	2cc\	-o
=24	=24	=24	=24	=24	=24	=24	=24
2F\	.	1F	.	2f\	-as	2cc\	gra-
2D\	.	.	.	2a\	De-	2dd\	.
=25	=25	=25	=25	=25	=25	=25	=25
2C/	.	1E	-o	2e\	.	2ee\	.
2E\	.	.	.	2g\	-o	4cc\	.
.	.	.	.	.	.	4b\	.
!	!	!LO:LB:g=original	!	!	!	!	!
=26	=26	=26	=26	=26	=26	=26	=26
2.D\	.	2.F#X/	gra-	2.d\	gra-	2.a\	.
4D\	-ti-	4F#/	-ti-	4d\	-ti-	4a\	-ti-
=27	=27	=27	=27	=27	=27	=27	=27
0GG	-as.	0G	-as.	0d	-as.	0b	-as.
==	==	==	==	==	==	==	==
*-	*-	*-	*-	*-	*-	*-	*-
!!!system-decoration: [(s1,s2,s3,s4)]
!!!ENC: Anastazja Marusiak
!!!END: 2023-11-13
!!!YEM: Copyright © 2023 by [Copyright Holder]
!!!ENC: Leszek Kubiak
!!!END: 2024-01-22
